X: 32288
T: Pigeon On The Beach, The
R: reel
M: 4/4
K: Dmajor
FAdF GBed|cA A/A/A eAce|fdgf ecAF|GBed cAGE|
FAdF GBeG|AdfA Bdgb|~a2fd cA A/A/A|1 (3Bcd ec dBAG:|2 (3Bcd ec defa||
|:bged cAGE|FAdf af (3def|gebg fAdf|eAce af (3gfe|
~d2AF ~e2BG|Adfb ~a2a^g|~a2af gecA|1 (3Bcd ec defa:|2 (3Bcd ec dBAG||

